src/assets/images/icons/shopping-cart.svg

<svg
        xmlns="http://www.w3.org/2000/svg"
        xmlns:xlink="http://www.w3.org/1999/xlink"
        width="45px" height="40px">
    <path fill-rule="evenodd"  fill="rgb(0, 144, 227)"
          d="M42.560,5.835 C43.119,5.835 43.588,6.064 43.969,6.521 C44.350,6.978 44.465,7.486 44.312,8.045 L41.036,23.893 C40.934,24.300 40.718,24.643 40.388,24.922 C40.058,25.202 39.690,25.341 39.283,25.341 L13.987,25.341 L14.901,30.218 L37.455,30.218 C37.912,30.218 38.306,30.345 38.636,30.599 C38.966,30.853 39.182,31.183 39.283,31.589 C40.249,32.554 40.731,33.723 40.731,35.094 C40.731,36.466 40.261,37.621 39.321,38.561 C38.382,39.501 37.226,39.971 35.855,39.971 C34.483,39.971 33.327,39.501 32.388,38.561 C31.448,37.621 30.978,36.466 30.978,35.094 C30.978,34.231 31.207,33.418 31.664,32.656 L20.539,32.656 C20.997,33.418 21.225,34.231 21.225,35.094 C21.225,36.466 20.755,37.621 19.815,38.561 C18.876,39.501 17.720,39.971 16.349,39.971 C14.977,39.971 13.821,39.501 12.882,38.561 C11.942,37.621 11.472,36.491 11.472,35.170 C11.472,33.850 11.904,32.732 12.767,31.818 L7.434,3.397 L1.414,3.397 C1.160,3.397 0.944,3.308 0.767,3.130 C0.589,2.952 0.500,2.737 0.500,2.483 L0.500,1.873 C0.500,1.619 0.589,1.403 0.767,1.225 C0.944,1.048 1.160,0.959 1.414,0.959 L7.891,0.959 C8.348,0.959 8.742,1.098 9.072,1.378 C9.402,1.657 9.618,2.025 9.720,2.483 L10.329,5.835 L42.560,5.835 ZM18.787,35.094 C18.787,34.434 18.546,33.862 18.063,33.380 C17.580,32.897 17.009,32.656 16.349,32.656 C15.688,32.656 15.117,32.897 14.634,33.380 C14.152,33.862 13.910,34.434 13.910,35.094 C13.910,35.755 14.152,36.326 14.634,36.809 C15.117,37.291 15.688,37.532 16.349,37.532 C17.009,37.532 17.580,37.291 18.063,36.809 C18.546,36.326 18.787,35.755 18.787,35.094 ZM35.855,37.532 C36.515,37.532 37.086,37.291 37.569,36.809 C38.052,36.326 38.293,35.755 38.293,35.094 C38.293,34.434 38.052,33.862 37.569,33.380 C37.086,32.897 36.515,32.656 35.855,32.656 C35.194,32.656 34.623,32.897 34.140,33.380 C33.658,33.862 33.416,34.434 33.416,35.094 C33.416,35.755 33.658,36.326 34.140,36.809 C34.623,37.291 35.194,37.532 35.855,37.532 ZM38.750,22.903 L41.798,8.273 L10.786,8.273 L13.529,22.903 L38.750,22.903 Z"/>
</svg>

<?xml version="1.0" encoding="utf-8"?>
<!-- Generator: Adobe Illustrator 23.0.1, SVG Export Plug-In . SVG Version: 6.00 Build 0)  -->
<svg version="1.1" id="Layer_1" xmlns="http://www.w3.org/2000/svg" xmlns:xlink="http://www.w3.org/1999/xlink" x="0px" y="0px"
	 width="45px" height="40px" viewBox="0 0 45 40" style="enable-background:new 0 0 45 40;" xml:space="preserve">
<style type="text/css">
	.st0{fill-rule:evenodd;clip-rule:evenodd;fill:#FFFFFF;}
</style>
<path class="st0" d="M42.6,5.8c0.6,0,1,0.2,1.4,0.7s0.5,1,0.3,1.5L41,23.9c-0.1,0.4-0.3,0.8-0.6,1c-0.3,0.3-0.7,0.4-1.1,0.4H14
	l0.9,4.9h22.6c0.5,0,0.9,0.1,1.2,0.4c0.3,0.3,0.5,0.6,0.6,1c1,1,1.4,2.1,1.4,3.5c0,1.4-0.5,2.5-1.4,3.5c-0.9,0.9-2.1,1.4-3.5,1.4
	c-1.4,0-2.5-0.5-3.5-1.4c-0.9-0.9-1.4-2.1-1.4-3.5c0-0.9,0.2-1.7,0.7-2.4H20.5c0.5,0.8,0.7,1.6,0.7,2.4c0,1.4-0.5,2.5-1.4,3.5
	c-0.9,0.9-2.1,1.4-3.5,1.4c-1.4,0-2.5-0.5-3.5-1.4c-0.9-0.9-1.4-2.1-1.4-3.4c0-1.3,0.4-2.4,1.3-3.4L7.4,3.4h-6
	c-0.2,0-0.5-0.1-0.6-0.3C0.6,3,0.5,2.7,0.5,2.5V1.9c0-0.3,0.1-0.5,0.3-0.6C0.9,1.1,1.2,1,1.4,1h6.5c0.5,0,0.9,0.1,1.2,0.4
	C9.4,1.7,9.6,2,9.7,2.5l0.6,3.4H42.6z M18.8,35.1c0-0.7-0.2-1.2-0.7-1.7c-0.5-0.5-1.1-0.7-1.7-0.7c-0.7,0-1.2,0.2-1.7,0.7
	c-0.5,0.5-0.7,1.1-0.7,1.7c0,0.7,0.2,1.2,0.7,1.7c0.5,0.5,1.1,0.7,1.7,0.7c0.7,0,1.2-0.2,1.7-0.7C18.5,36.3,18.8,35.8,18.8,35.1z
	 M35.9,37.5c0.7,0,1.2-0.2,1.7-0.7c0.5-0.5,0.7-1.1,0.7-1.7c0-0.7-0.2-1.2-0.7-1.7c-0.5-0.5-1.1-0.7-1.7-0.7c-0.7,0-1.2,0.2-1.7,0.7
	c-0.5,0.5-0.7,1.1-0.7,1.7c0,0.7,0.2,1.2,0.7,1.7C34.6,37.3,35.2,37.5,35.9,37.5z M38.8,22.9l3-14.6h-31l2.7,14.6
	C13.5,22.9,38.8,22.9,38.8,22.9z"/>
</svg>
